src/assets/img/guia_blob.svg

<svg fill="none" height="255" viewBox="0 0 460 255" width="460" xmlns="http://www.w3.org/2000/svg"><path d="m150.913 112.142-32.127-23.7578-33.2614 23.7578-33.2996-24.6245 33.8591-25.7445 31.6209 25.675 33.768-25.675 32.74 26.5838zm65.851-56.5411c-19.247-23.3934-29.25-35.2722-47.846-44.193-8.652-4.15114-30.888-13.31858-58.802-9.49517-19.9409 2.7314-33.8154 10.86637-44.5581 17.16487-9.4144 5.5199-23.9858 14.0631-36.5222 29.9494-17.9637 22.764-21.06783 47.069-24.10542 70.854-1.54674 12.109-4.050327 33.134 1.46108 59.533 3.67764 17.613 6.82454 32.687 17.89624 46.019 18.6925 22.51 47.8773 25.484 73.7768 28.122 45.7316 4.66 80.5756-9.088 96.7856-15.704 24.466-9.988 39.587-16.16 51.862-32.505 23.915-31.846 14.684-72.55 12.418-82.542-5.106-22.512-17.799-37.3438-42.366-67.2031z" fill="#2c2522"/><path d="m85.5239 80.5222c-3.5546 0-6.436 2.8815-6.436 6.4361s2.8814 6.436 6.436 6.436 6.4361-2.8814 6.4361-6.436-2.8815-6.4361-6.4361-6.4361z" fill="#000"/><path d="m144.477 86.9566c0 3.5545 2.881 6.436 6.436 6.436 3.554 0 6.436-2.8815 6.436-6.436 0-3.5546-2.882-6.4361-6.436-6.4361-3.555 0-6.436 2.8815-6.436 6.4361z" fill="#000"/><path d="m157.349 86.9579c0 3.5546-2.881 6.4361-6.436 6.4361s-6.436-2.8815-6.436-6.4361 2.881-6.436 6.436-6.436 6.436 2.8814 6.436 6.436zm-71.8248 6.4361c-3.5546 0-6.436-2.8815-6.436-6.4361s2.8814-6.436 6.436-6.436 6.4361 2.8814 6.4361 6.436-2.8815 6.4361-6.4361 6.4361zm32.1798-5.9458-31.6203-25.675-33.8591 25.7442 33.2996 24.6256 33.2618-23.7586 32.127 23.7586 33.3-23.786-32.741-26.5838z" fill="#fafafa"/><path d="m224.826 147.834c-12.182 4.252-16.287-10.989-20.119-8.244-3.832 2.744 6.565 42.669 33.953 68.923 27.388 26.253 54.003 50.273 133.977 45.685 50.022-2.869 105.16-.518 77.814-82.423-27.346-81.9048-47.149-77.4113-127.824-78.7293-110.612-1.8071-85.62 50.5353-97.801 54.7883z" fill="#fff"/><path d="m271.483 141.094c.064-1.218 1.089-2.106 2.377-2.038 1.253.067 2.213 1.061 2.148 2.279-.068 1.288-1.093 2.176-2.381 2.108-1.288-.069-2.213-1.061-2.144-2.349zm5.494 17.469 2.298.122c-.338 3.718-3.366 6.175-7.369 5.962-4.282-.228-6.894-2.985-6.71-6.432.107-2.019 1.2-3.531 3.387-5.265l1.789-1.476c1.787-1.441 2.398-2.421 2.38-6.018l1.706.091c.342 3.404.185 5.037-2.044 6.908l-1.974 1.676c-1.681 1.411-2.537 2.413-2.622 4.014-.123 2.298 1.557 4.203 4.376 4.353 2.646.14 4.582-1.467 4.783-3.935zm16.563.148.178-3.342c-1.202 2.24-3.504 3.514-6.358 3.362-3.795-.202-6.153-2.457-5.978-5.764.191-3.586 3.146-5.314 8.716-5.017 1.114.059 1.946.173 3.748.408l.082-1.531c.163-3.064-1.377-4.961-4.162-5.109-2.994-.159-4.972 1.586-5.166 4.578l-2.228-.119c.321-4.067 3.285-6.633 7.463-6.411 4.282.228 6.655 2.868 6.429 7.115l-.635 11.941zm-9.821-5.69c-.119 2.228 1.507 3.816 4.083 3.953 3.412.182 5.689-1.932 5.872-5.378l.087-1.636c-1.559-.223-2.636-.315-3.646-.369-4.177-.222-6.261.889-6.396 3.43zm23.442-2.802c.3-5.64 3.639-9.338 8.582-9.075 2.75.147 5 1.837 6.079 4.513l.557-10.479 2.437.13-1.329 24.995-2.263-.12.206-3.864c-1.431 2.612-3.88 4.018-6.699 3.868-4.944-.263-7.87-4.329-7.57-9.968zm2.472.131c-.248 4.665 1.973 7.541 5.559 7.732 3.55.189 6.141-2.571 6.385-7.167.247-4.63-2.117-7.443-5.599-7.629-3.585-.19-6.097 2.399-6.345 7.064zm28.996-9.769-2.715-.144 3.764-4.478 2.89.154zm-2.534 20.742c-5.048-.268-8.49-4.466-8.196-10.001.293-5.501 4.159-9.275 9.207-9.007 5.083.271 8.527 4.434 8.234 9.934-.294 5.535-4.162 9.344-9.245 9.074zm.113-2.124c3.586.191 6.418-2.521 6.661-7.081.238-4.491-2.29-7.488-5.876-7.679-3.551-.189-6.383 2.523-6.622 7.014-.243 4.56 2.286 7.558 5.837 7.746zm15.589-8.108-.568 10.688-2.437-.13.976-18.346 2.263.12-.184 3.447c1.304-2.2 3.614-3.613 6.259-3.473 3.83.204 6.172 2.772 5.94 7.124l-.633 11.906-2.437-.13.589-11.07c.187-3.516-1.309-5.586-4.303-5.745-2.854-.152-5.283 2.198-5.465 5.609zm15.878 2.346c.3-5.64 3.639-9.337 8.582-9.074 2.75.146 4.999 1.837 6.079 4.512l.557-10.478 2.437.13-1.329 24.995-2.263-.121.205-3.864c-1.43 2.612-3.879 4.018-6.699 3.868-4.943-.263-7.869-4.328-7.569-9.968zm2.472.132c-.248 4.664 1.973 7.54 5.558 7.731 3.551.189 6.142-2.571 6.386-7.166.246-4.63-2.118-7.444-5.599-7.629-3.585-.191-6.097 2.399-6.345 7.064zm26.322 10.965c-5.152-.274-8.358-4.32-8.049-10.133.285-5.361 4.049-9.176 8.923-8.917 5.222.278 8.409 4.672 7.679 10.533l-14.204-.756c-.022 4.363 2.133 7.166 5.718 7.357 3.064.162 5.278-1.43 6.026-4.323l2.402.128c-1.052 4.028-4.282 6.335-8.495 6.111zm.739-17.172c-3.307-.176-5.775 2.242-6.301 6.228l11.662.621c.01-4.119-1.984-6.669-5.361-6.849zm-132.774 37.636c.299-5.604 3.639-9.337 8.582-9.074 2.855.152 5.135 1.914 6.242 4.731l.215-4.038 2.263.12-1.333 25.065-2.437-.13.557-10.478c-1.392 2.544-3.769 3.919-6.519 3.773-4.944-.263-7.871-4.294-7.57-9.969zm2.472.132c-.25 4.7 1.973 7.541 5.559 7.732 3.551.188 6.139-2.537 6.382-7.097.248-4.665-2.114-7.514-5.595-7.699-3.586-.19-6.1 2.434-6.346 7.064zm31.261 3.443.582-10.931 2.402.128-.976 18.346-2.263-.121.176-3.307c-1.053 2.074-3.362 3.487-6.043 3.345-3.725-.199-6.083-2.454-5.837-7.084l.635-11.94 2.437.129-.608 11.419c-.198 3.725 1.572 5.25 4.148 5.387 2.924.156 5.173-2.099 5.347-5.371zm11.656-14.601c-.058 1.079-.899 1.802-2.083 1.739-1.148-.061-1.908-.869-1.851-1.948.056-1.045.897-1.768 2.046-1.707 1.183.063 1.943.871 1.888 1.916zm-1.933 22.554-2.437-.129.976-18.347 2.437.13zm12.468 1.012c-5.152-.274-8.358-4.319-8.049-10.133.285-5.361 4.049-9.176 8.923-8.916 5.221.277 8.409 4.671 7.678 10.532l-14.203-.755c-.023 4.362 2.132 7.165 5.718 7.356 3.064.163 5.278-1.43 6.025-4.323l2.402.128c-1.052 4.028-4.282 6.335-8.494 6.111zm.739-17.171c-3.307-.176-5.775 2.241-6.301 6.228l11.662.62c.01-4.119-1.984-6.669-5.361-6.848zm14.342 7.779-.522 9.818-2.437-.13.976-18.346 2.263.12-.222 4.178c1.397-2.649 4.205-4.245 7.234-4.084l-.135 2.541c-3.857-.345-6.944 1.9-7.157 5.903zm16.434 11.068c-5.152-.274-8.359-4.319-8.049-10.133.285-5.361 4.049-9.176 8.922-8.916 5.222.277 8.41 4.671 7.679 10.532l-14.203-.755c-.023 4.362 2.132 7.165 5.718 7.356 3.063.163 5.278-1.43 6.025-4.323l2.402.128c-1.052 4.029-4.282 6.336-8.494 6.111zm.739-17.171c-3.308-.176-5.775 2.241-6.301 6.228l11.662.62c.009-4.119-1.985-6.669-5.361-6.848zm25.371 13.079c-.179 3.377-3.006 5.321-7.531 5.081-4.561-.243-7.223-2.689-7.37-6.502l2.333.124c.035 2.62 2.002 4.366 5.135 4.533 2.994.159 4.865-.894 4.976-2.982.096-1.811-.904-2.702-3.659-3.407l-2.618-.663c-3.446-.846-5.2-2.65-5.06-5.296.163-3.064 2.994-5.078 6.997-4.865 4.212.224 6.877 2.635 6.961 6.305l-2.298-.122c-.108-2.554-1.874-4.149-4.763-4.303-2.576-.137-4.416.987-4.518 2.902-.096 1.81.971 2.74 3.659 3.406l2.722.669c3.619.89 5.173 2.509 5.034 5.12zm15.607-16.695c-.057 1.079-.899 1.802-2.082 1.739-1.149-.061-1.909-.869-1.852-1.948.056-1.045.897-1.768 2.046-1.707 1.184.063 1.944.872 1.888 1.916zm-1.933 22.554-2.436-.129.975-18.346 2.437.129zm8.24-9.406-.522 9.817-2.437-.13.975-18.346 2.263.12-.222 4.178c1.398-2.649 4.206-4.245 7.234-4.084l-.135 2.541c-3.857-.344-6.943 1.9-7.156 5.904zm10.604-8.653-2.333-.124c.303-3.719 3.401-6.173 7.404-5.96 4.247.226 6.859 2.983 6.675 6.43-.118 2.228-1.385 3.731-3.352 5.267l-1.82 1.405c-1.857 1.437-2.398 2.421-2.378 5.983l-1.706-.091c-.326-3.718-.037-5.204 2.043-6.908l1.969-1.571c1.607-1.346 2.532-2.31 2.622-4.015.122-2.298-1.487-4.199-4.342-4.351-2.645-.14-4.616 1.465-4.782 3.935zm5.465 17.362c-.067 1.254-1.09 2.107-2.378 2.038-1.253-.066-2.18-1.023-2.113-2.277.069-1.288 1.057-2.143 2.345-2.074 1.288.068 2.214 1.025 2.146 2.313z" fill="#212322"/></svg>

<svg width="460" height="255" viewBox="0 0 460 255" fill="none" xmlns="http://www.w3.org/2000/svg">
<path d="M150.913 112.142L118.786 88.3842L85.5246 112.142L52.225 87.5175L86.0841 61.773L117.705 87.448L151.473 61.773L184.213 88.3568L150.913 112.142ZM216.764 55.6009C197.517 32.2075 187.514 20.3287 168.918 11.4079C160.266 7.25676 138.03 -1.91068 110.116 1.91273C90.1751 4.64413 76.3006 12.7791 65.5579 19.0776C56.1435 24.5975 41.5721 33.1407 29.0357 49.027C11.072 71.791 7.96787 96.096 4.93028 119.881C3.38354 131.99 0.879953 153.015 6.39136 179.414C10.069 197.027 13.2159 212.101 24.2876 225.433C42.9801 247.943 72.1649 250.917 98.0644 253.555C143.796 258.215 178.64 244.467 194.85 237.851C219.316 227.863 234.437 221.691 246.712 205.346C270.627 173.5 261.396 132.796 259.13 122.804C254.024 100.292 241.331 85.4602 216.764 55.6009Z" fill="#2C2522"/>
<path d="M85.5239 80.5222C81.9693 80.5222 79.0879 83.4037 79.0879 86.9583C79.0879 90.5129 81.9693 93.3943 85.5239 93.3943C89.0785 93.3943 91.96 90.5129 91.96 86.9583C91.96 83.4037 89.0785 80.5222 85.5239 80.5222Z" fill="black"/>
<path d="M144.477 86.9566C144.477 90.5111 147.358 93.3926 150.913 93.3926C154.467 93.3926 157.349 90.5111 157.349 86.9566C157.349 83.402 154.467 80.5205 150.913 80.5205C147.358 80.5205 144.477 83.402 144.477 86.9566Z" fill="black"/>
<path d="M157.349 86.9579C157.349 90.5125 154.468 93.394 150.913 93.394C147.358 93.394 144.477 90.5125 144.477 86.9579C144.477 83.4033 147.358 80.5219 150.913 80.5219C154.468 80.5219 157.349 83.4033 157.349 86.9579ZM85.5242 93.394C81.9696 93.394 79.0882 90.5125 79.0882 86.9579C79.0882 83.4033 81.9696 80.5219 85.5242 80.5219C89.0788 80.5219 91.9603 83.4033 91.9603 86.9579C91.9603 90.5125 89.0788 93.394 85.5242 93.394ZM117.704 87.4482L86.0837 61.7732L52.2246 87.5174L85.5242 112.143L118.786 88.3844L150.913 112.143L184.213 88.357L151.472 61.7732L117.704 87.4482Z" fill="#FAFAFA"/>
<path d="M224.826 147.834C212.644 152.086 208.539 136.845 204.707 139.59C200.875 142.334 211.272 182.259 238.66 208.513C266.048 234.766 292.663 258.786 372.637 254.198C422.659 251.329 477.797 253.68 450.451 171.775C423.105 89.8702 403.302 94.3637 322.627 93.0457C212.015 91.2386 237.007 143.581 224.826 147.834Z" fill="white"/>
<path d="M271.483 141.094C271.547 139.876 272.572 138.988 273.86 139.056C275.113 139.123 276.073 140.117 276.008 141.335C275.94 142.623 274.915 143.511 273.627 143.443C272.339 143.374 271.414 142.382 271.483 141.094ZM276.977 158.563L279.275 158.685C278.937 162.403 275.909 164.86 271.906 164.647C267.624 164.419 265.012 161.662 265.196 158.215C265.303 156.196 266.396 154.684 268.583 152.95L270.372 151.474C272.159 150.033 272.77 149.053 272.752 145.456L274.458 145.547C274.8 148.951 274.643 150.584 272.414 152.455L270.44 154.131C268.759 155.542 267.903 156.544 267.818 158.145C267.695 160.443 269.375 162.348 272.194 162.498C274.84 162.638 276.776 161.031 276.977 158.563ZM293.54 158.711L293.718 155.369C292.516 157.609 290.214 158.883 287.36 158.731C283.565 158.529 281.207 156.274 281.382 152.967C281.573 149.381 284.528 147.653 290.098 147.95C291.212 148.009 292.044 148.123 293.846 148.358L293.928 146.827C294.091 143.763 292.551 141.866 289.766 141.718C286.772 141.559 284.794 143.304 284.6 146.296L282.372 146.177C282.693 142.11 285.657 139.544 289.835 139.766C294.117 139.994 296.49 142.634 296.264 146.881L295.629 158.822L293.54 158.711ZM283.719 153.021C283.6 155.249 285.226 156.837 287.802 156.974C291.214 157.156 293.491 155.042 293.674 151.596L293.761 149.96C292.202 149.737 291.125 149.645 290.115 149.591C285.938 149.369 283.854 150.48 283.719 153.021ZM307.161 150.219C307.461 144.579 310.8 140.881 315.743 141.144C318.493 141.291 320.743 142.981 321.822 145.657L322.379 135.178L324.816 135.308L323.487 160.303L321.224 160.183L321.43 156.319C319.999 158.931 317.55 160.337 314.731 160.187C309.787 159.924 306.861 155.858 307.161 150.219ZM309.633 150.35C309.385 155.015 311.606 157.891 315.192 158.082C318.742 158.271 321.333 155.511 321.577 150.915C321.824 146.285 319.46 143.472 315.978 143.286C312.393 143.096 309.881 145.685 309.633 150.35ZM338.629 140.581L335.914 140.437L339.678 135.959L342.568 136.113L338.629 140.581ZM336.095 161.323C331.047 161.055 327.605 156.857 327.899 151.322C328.192 145.821 332.058 142.047 337.106 142.315C342.189 142.586 345.633 146.749 345.34 152.249C345.046 157.784 341.178 161.593 336.095 161.323ZM336.208 159.199C339.794 159.39 342.626 156.678 342.869 152.118C343.107 147.627 340.579 144.63 336.993 144.439C333.442 144.25 330.61 146.962 330.371 151.453C330.128 156.013 332.657 159.011 336.208 159.199ZM351.797 151.091L351.229 161.779L348.792 161.649L349.768 143.303L352.031 143.423L351.847 146.87C353.151 144.67 355.461 143.257 358.106 143.397C361.936 143.601 364.278 146.169 364.046 150.521L363.413 162.427L360.976 162.297L361.565 151.227C361.752 147.711 360.256 145.641 357.262 145.482C354.408 145.33 351.979 147.68 351.797 151.091ZM367.675 153.437C367.975 147.797 371.314 144.1 376.257 144.363C379.007 144.509 381.256 146.2 382.336 148.875L382.893 138.397L385.33 138.527L384.001 163.522L381.738 163.401L381.943 159.537C380.513 162.149 378.064 163.555 375.244 163.405C370.301 163.142 367.375 159.077 367.675 153.437ZM370.147 153.569C369.899 158.233 372.12 161.109 375.705 161.3C379.256 161.489 381.847 158.729 382.091 154.134C382.337 149.504 379.973 146.69 376.492 146.505C372.907 146.314 370.395 148.904 370.147 153.569ZM396.469 164.534C391.317 164.26 388.111 160.214 388.42 154.401C388.705 149.04 392.469 145.225 397.343 145.484C402.565 145.762 405.752 150.156 405.022 156.017L390.818 155.261C390.796 159.624 392.951 162.427 396.536 162.618C399.6 162.78 401.814 161.188 402.562 158.295L404.964 158.423C403.912 162.451 400.682 164.758 396.469 164.534ZM397.208 147.362C393.901 147.186 391.433 149.604 390.907 153.59L402.569 154.211C402.579 150.092 400.585 147.542 397.208 147.362ZM264.434 184.998C264.733 179.394 268.073 175.661 273.016 175.924C275.871 176.076 278.151 177.838 279.258 180.655L279.473 176.617L281.736 176.737L280.403 201.802L277.966 201.672L278.523 191.194C277.131 193.738 274.754 195.113 272.004 194.967C267.06 194.704 264.133 190.673 264.434 184.998ZM266.906 185.13C266.656 189.83 268.879 192.671 272.465 192.862C276.016 193.05 278.604 190.325 278.847 185.765C279.095 181.1 276.733 178.251 273.252 178.066C269.666 177.876 267.152 180.5 266.906 185.13ZM298.167 188.573L298.749 177.642L301.151 177.77L300.175 196.116L297.912 195.995L298.088 192.688C297.035 194.762 294.726 196.175 292.045 196.033C288.32 195.834 285.962 193.579 286.208 188.949L286.843 177.009L289.28 177.138L288.672 188.557C288.474 192.282 290.244 193.807 292.82 193.944C295.744 194.1 297.993 191.845 298.167 188.573ZM309.823 173.972C309.765 175.051 308.924 175.774 307.74 175.711C306.592 175.65 305.832 174.842 305.889 173.763C305.945 172.718 306.786 171.995 307.935 172.056C309.118 172.119 309.878 172.927 309.823 173.972ZM307.89 196.526L305.453 196.397L306.429 178.05L308.866 178.18L307.89 196.526ZM320.358 197.538C315.206 197.264 312 193.219 312.309 187.405C312.594 182.044 316.358 178.229 321.232 178.489C326.453 178.766 329.641 183.16 328.91 189.021L314.707 188.266C314.684 192.628 316.839 195.431 320.425 195.622C323.489 195.785 325.703 194.192 326.45 191.299L328.852 191.427C327.8 195.455 324.57 197.762 320.358 197.538ZM321.097 180.367C317.79 180.191 315.322 182.608 314.796 186.595L326.458 187.215C326.468 183.096 324.474 180.546 321.097 180.367ZM335.439 188.146L334.917 197.964L332.48 197.834L333.456 179.488L335.719 179.608L335.497 183.786C336.894 181.137 339.702 179.541 342.731 179.702L342.596 182.243C338.739 181.898 335.652 184.143 335.439 188.146ZM351.873 199.214C346.721 198.94 343.514 194.895 343.824 189.081C344.109 183.72 347.873 179.905 352.746 180.165C357.968 180.442 361.156 184.836 360.425 190.697L346.222 189.942C346.199 194.304 348.354 197.107 351.94 197.298C355.003 197.461 357.218 195.868 357.965 192.975L360.367 193.103C359.315 197.132 356.085 199.439 351.873 199.214ZM352.612 182.043C349.304 181.867 346.837 184.284 346.311 188.271L357.973 188.891C357.982 184.772 355.988 182.222 352.612 182.043ZM377.983 195.122C377.804 198.499 374.977 200.443 370.452 200.203C365.891 199.96 363.229 197.514 363.082 193.701L365.415 193.825C365.45 196.445 367.417 198.191 370.55 198.358C373.544 198.517 375.415 197.464 375.526 195.376C375.622 193.565 374.622 192.674 371.867 191.969L369.249 191.306C365.803 190.46 364.049 188.656 364.189 186.01C364.352 182.946 367.183 180.932 371.186 181.145C375.398 181.369 378.063 183.78 378.147 187.45L375.849 187.328C375.741 184.774 373.975 183.179 371.086 183.025C368.51 182.888 366.67 184.012 366.568 185.927C366.472 187.737 367.539 188.667 370.227 189.333L372.949 190.002C376.568 190.892 378.122 192.511 377.983 195.122ZM393.59 178.427C393.533 179.506 392.691 180.229 391.508 180.166C390.359 180.105 389.599 179.297 389.656 178.218C389.712 177.173 390.553 176.45 391.702 176.511C392.886 176.574 393.646 177.383 393.59 178.427ZM391.657 200.981L389.221 200.852L390.196 182.506L392.633 182.635L391.657 200.981ZM399.897 191.575L399.375 201.392L396.938 201.262L397.913 182.916L400.176 183.036L399.954 187.214C401.352 184.565 404.16 182.969 407.188 183.13L407.053 185.671C403.196 185.327 400.11 187.571 399.897 191.575ZM410.501 182.922L408.168 182.798C408.471 179.079 411.569 176.625 415.572 176.838C419.819 177.064 422.431 179.821 422.247 183.268C422.129 185.496 420.862 186.999 418.895 188.535L417.075 189.94C415.218 191.377 414.677 192.361 414.697 195.923L412.991 195.832C412.665 192.114 412.954 190.628 415.034 188.924L417.003 187.353C418.61 186.007 419.535 185.043 419.625 183.338C419.747 181.04 418.138 179.139 415.283 178.987C412.638 178.847 410.667 180.452 410.501 182.922ZM415.966 200.284C415.899 201.538 414.876 202.391 413.588 202.322C412.335 202.256 411.408 201.299 411.475 200.045C411.544 198.757 412.532 197.902 413.82 197.971C415.108 198.039 416.034 198.996 415.966 200.284Z" fill="#212322"/>
</svg>
